X:1
T:The Muffin Man
C:Traditional
M:4/4
L:1/8
Q:1/4=108
K:G
D2 G2 G3 A | B2 G2 G3 F | E2 A2 A3 G | F2 D2 D4 |
D2 G2 G3 A | B2 G2 G3 F | E2 A2 G2 F2 | G4 G4 |]
w: Do you know the | muf-fin man the | muf-fin man the | muf-fin man | Do you know the | muf-fin man who | lives in Dru-ry | Lane _
